X:1
T:Title
%%score { ( 1 3 4 ) | ( 2 5 ) }
L:1/8
M:6/4
K:C
V:1 treble nm="Grand Piano"
V:3 treble 
V:4 treble 
V:2 bass 
V:5 bass 
V:1
 z6 z4[Q:1/4=168] [EG]2 | [EG]4 [DF]2 [CE]4 [DF]2 | [FA]4 [EG]2 [CE]4 [CE]2 | %3
 [DF]4 [C^F]2 [B,G]4 [B,D]2 |[M:5/4] [DF]4 [CE]2 [CE]4 |[M:1/4] [EG]2 | %6
[M:6/4] [EG]4 [DF]2 [CE]4 [DF]2 | [FA]4 [EG]2 E4 E2 | D4 G2 B4 c2 |[M:7/4] B4 A2 [G,B,G]6 z2 | %10
[M:9/4] c2 c2 B2 C2 C2 C2 z2 ^G2 A2 |[M:5/4] z2 z4 [EG]4- |[M:4/4] [EG]6 z2 |[M:9/4] z6 .[DF]12 | %14
[M:6/4] z6[K:bass] [CE]6- |[M:3/4] [CE]4 z2 | c2 c2 B2 |[M:9/4] .[FA]12 z6 | %18
[M:5/4] [EG]2- [EG]2- [EG]6 |[M:4/4] [CEG]2 [CEG]2 [DF]2[K:bass] [G,CE]2 | %20
[M:9/4] .[B,D]12[K:treble] z6[K:bass][Q:1/4=165][Q:1/4=163][Q:1/4=160][Q:1/4=158][Q:1/4=155][Q:1/4=152][Q:1/4=150][Q:1/4=147][Q:1/4=144][Q:1/4=142][Q:1/4=139][Q:1/4=137][Q:1/4=134][Q:1/4=131][Q:1/4=129] | %21
[M:5/4] [E,C]2- [E,C]2- [E,C]6 |] %22
V:2
 z6 z4 [C,C]2 | [C,C]4 [C,G,]2 [C,G,]4 [C,G,]2 | [C,C]4 [C,C]2 [C,G,]4 [C,G,]2 | %3
 [G,,G,]4 [G,,G,]2 [G,,G,]4 [G,,G,]2 |[M:5/4] [C,G,]4 [C,G,]2 [C,G,]4 |[M:1/4] [C,C]2 | %6
[M:6/4] [C,C]4 [C,G,]2 [C,G,]4 [C,C]2 | [C,C]4 [C,C]2 [C,G,C]4 [C,G,C]2 | %8
 [D,G,B,]4 [D,B,D]2 [D,G,D]4 [E,G,C]2 |[M:7/4] [D,G,D]4 [D,^F,C]2 G,,6 z2 | %10
[M:9/4][K:treble] E2 E2 G2[K:bass] F,2 F,2 F,2 z2 E2[K:treble] F2 | %11
[M:5/4] A2 G2 F2[K:bass] C,2 C,2 |[M:4/4] C,2 C,4 E2 |[M:9/4] E2 D2 C2 G,,2 G,,2 G,,2 z2 ^C2 D2 | %14
[M:6/4] B,4 D2 C,2 C,2 C,2 |[M:3/4] C,4 z2 | E2 E2 G2 | %17
[M:9/4][K:bass] F,2 F,2 F,2 z2 E2[K:treble] F2 A2 G2 F2 |[M:5/4][K:bass] C,2 C,2 C,2 C,4 | %19
[M:4/4] C,2 z2 G,2 C,2 |[M:9/4] G,,4 G,,2 z2 _B,2 G,,2 z2 C2 G,,2 |[M:5/4] C,2- C,2- C,6 |] %22
V:3
 x12 | x12 | x12 | x12 |[M:5/4] x10 |[M:1/4] x2 |[M:6/4] x12 | x12 | x12 |[M:7/4] x14 | %10
[M:9/4] z6 .[FA]12 |[M:5/4] c2 B2 A2 C2 C2 |[M:4/4] C2 C4 G2 | %13
[M:9/4] G2 F2 E2 G,2 G,2 G,2 z2 E2 F2 |[M:6/4] G4 F2[K:bass] G,2 G,2 G,2 |[M:3/4] G,4 z2 | x6 | %17
[M:9/4] C2 C2 C2 z2 ^G2 A2 c2 B2 A2 |[M:5/4] C2 C2 C2 C4 |[M:4/4] x6[K:bass] x2 | %20
[M:9/4] G,4 G,2 z2 ^C2[K:treble] [G,B,D]2 [DF]2[K:bass] E2 [F,B,D]2 |[M:5/4] x10 |] %22
V:4
 x12 | x12 | x12 | x12 |[M:5/4] x10 |[M:1/4] x2 |[M:6/4] x12 | x12 | x12 |[M:7/4] x14 | %10
[M:9/4] z6 z6 .C6 |[M:5/4] x10 |[M:4/4] x8 |[M:9/4] z6 z6 .G,6 |[M:6/4] x6[K:bass] x6 |[M:3/4] x6 | %16
 x6 |[M:9/4] z6 .C6 z6 |[M:5/4] x10 |[M:4/4] x6[K:bass] x2 | %20
[M:9/4] z6 .G,6[K:treble] .G,6[K:bass] |[M:5/4] x10 |] %22
V:5
 x12 | x12 | x12 | x12 |[M:5/4] x10 |[M:1/4] x2 |[M:6/4] x12 | x12 | x12 |[M:7/4] x14 | %10
[M:9/4][K:treble] z6[K:bass] z6 .F,6[K:treble] |[M:5/4] x6[K:bass] x4 |[M:4/4] x8 | %13
[M:9/4] z6 z6 .G,,6 |[M:6/4] x12 |[M:3/4] x6 | x6 |[M:9/4][K:bass] z6 .F,6[K:treble] z6 | %18
[M:5/4][K:bass] x10 |[M:4/4] z2 C,4 z2 |[M:9/4] z6 .G,,6 .G,,6 |[M:5/4] x10 |] %22

